!! 00000] TT[WS
!!!OTL: Hao fuqi
!!!ARE: Asia, China,ÿShanxi
!! Ethnic Group: Han
!! WI, 107
!!!SCT: J0126
!!!YEM: Copyright 1995, estate of Helmut Schaffrath.
**kern
*ICvox
*Ivox
*M2/4
*k[f#]
*G:
{8g
16g
16a
8f#
16e
16d
=1
8dd
16ee
16gg
4dd
=2
16dd
8dd
16ee
16gg
8dd
16b
=3
16dd
8g
16b
4a}
=4
{16f#
16f#
16e
16d
16dd
8dd
16ee
=5
16f#
16f#
16a
16b
4g
=6
16dd
8a
16dd
8g
16f#
16e
=7
16g
8d
16e
4d}
=8
{16a
16g
16a
16b
8.a
16b
=9
16dd
16b
16dd
16ee
4g
=10
16dd
8a
16b
8g
16f#
16e
=11
16g
8d
16e
4d}
==
!!!AGN: Xiaodiao. Qingge
!!!ONB: ESAC (Essen Associative Code) Database: CHINA
!!!AMT: simple duple
!!!AIN: vox
!!!EED: Helmut Schaffrath
!!!EEV: 1.0
*-
